svg/u1f6a0.svg

<svg viewBox="0 0 128 128" xmlns="http://www.w3.org/2000/svg">
  <g>
    <g>
      <path d="M77.07,58.9H47.63c0,0,10.04-7.95,10.04-40.47h9.58C67.25,49.41,77.07,58.9,77.07,58.9z" fill="#607D8B"/>
      <path d="M85.42,64.34H39.5c-1.62,0-2.93-1.31-2.93-2.93v0c0-1.62,1.31-2.93,2.93-2.93h45.92 c1.62,0,2.93,1.31,2.93,2.93v0C88.35,63.03,87.04,64.34,85.42,64.34z" fill="#607D8B"/>
      <path d="M62.79,55.18c-4.4,0-8.42-0.5-11.54-1.33c-1.35,2.57-2.56,4-3.18,4.64H76.7 c-0.54-0.64-1.63-2.07-2.88-4.51C70.78,54.73,66.96,55.18,62.79,55.18z" fill="#37474F"/>
      <polygon points="124,34.65 4,8.5 4,4.41 124,30.55 " fill="#9E9E9E"/>
      <path d="M92.91,15.53L34.85,4.04c-1.12-0.23-2.2,0.58-2.26,1.73c-0.13,2.46-1.09,5.97,4.88,7.19 c6.71,1.37,13.96,3.35,13.96,3.35c3.43,0.7,5.83,3.62,6.02,6.96c0.06,1.16,0.89,2.14,2.03,2.37l4.15,0.85 c1.14,0.23,2.28-0.34,2.8-1.39c1.48-3,4.84-4.74,8.26-4.04c0,0,7.45,1.01,14.15,2.38c5.98,1.22,7.98,1.44,7.98,1.44 S98.44,16.89,92.91,15.53z" fill="#607D8B"/>
      <circle cx="51.27" cy="13.43" r="5.32" fill="#37474F"/>
      <circle cx="39.67" cy="11.07" r="5.32" fill="#37474F"/>
      <circle cx="87.87" cy="20.9" r="5.32" fill="#37474F"/>
      <circle cx="76.26" cy="18.53" r="5.32" fill="#37474F"/>
      <circle cx="50.81" cy="15.72" r="5.32" fill="#82AEC0"/>
      <circle cx="39.2" cy="13.35" r="5.32" fill="#82AEC0"/>
      <circle cx="87.75" cy="23.26" r="5.32" fill="#82AEC0"/>
      <circle cx="76.14" cy="20.89" r="5.32" fill="#82AEC0"/>
      <path d="M35.89,12.36c0.25-0.74,0.77-1.39,1.44-1.8 c0.67-0.41,1.49-0.57,2.26-0.44" fill="none" stroke="#94D1E0" stroke-width="2" stroke-miterlimit="10"/>
      <path d="M47.48,14.54c0.82-1.23,2.32-1.98,3.8-1.91" fill="none" stroke="#94D1E0" stroke-width="2" stroke-miterlimit="10"/>
      <path d="M72.8,19.15c0.58-1.45,2.19-2.41,3.75-2.24" fill="none" stroke="#94D1E0" stroke-width="2" stroke-miterlimit="10"/>
      <path d="M84.63,21.57c0.68-1.41,2.49-2.17,3.98-1.67" fill="none" stroke="#94D1E0" stroke-width="2" stroke-miterlimit="10"/>
    </g>
    <path d="M29.23,62.2c6.76,0,58.24,0,65.44,0s11.65,3.41,11.65,3.41H18.48C18.48,65.61,22.46,62.2,29.23,62.2 z" fill="#82AEC0"/>
    <g>
      <line fill="#01579B" x1="62.38" x2="62.38" y1="123.28" y2="119.87"/>
      <path d="M107.98,119.87h-45.6v3.41c15.8,0,32.04,0,35.55,0C104.7,123.28,107.98,119.87,107.98,119.87z" fill="#01579B"/>
      <path d="M108.5,65.73H16.26l-7.8,5.78l0.14,35.84c0,7.47,8.19,12.65,8.19,12.65h91.2 c0,0,8.19-5.17,8.19-12.65l0.14-35.84L108.5,65.73z" fill="#0288D1"/>
      <path d="M16.78,119.87h45.6v3.41c-15.8,0-32.04,0-35.55,0C20.07,123.28,16.78,119.87,16.78,119.87z" fill="#01579B"/>
      <path d="M116.31,82.76c0,0-0.02-10.3-0.02-11.33c0-2.14-6.86-5.79-8.67-5.79H17.26 c-1.81,0-8.67,3.65-8.67,5.79c0,1.02-0.02,11.33-0.02,11.33H30.7c0,0,6.24,9.19,31.61,9.19s31.97-9.19,31.97-9.19H116.31z" fill="#E0E0E0"/>
      <path d="M93.93,104.49V79.77c0-1.58,1.28-2.85,2.85-2.85h19.53l-0.18,30.43H96.78 C95.2,107.35,93.93,106.07,93.93,104.49z" fill="#37474F"/>
      <path d="M95.59,102.42V81.61c0-1.19,0.95-2.15,2.13-2.15l18.57-0.09l-0.15,25.2H97.72 C96.54,104.56,95.59,103.6,95.59,102.42z" fill="#BAE2FD"/>
      <path d="M82.37,120.87H63.95 c-0.82,0-1.48-0.66-1.48-1.48V75.37c0-0.95,0.77-1.72,1.72-1.72h18.2c1.9,0,3.45,1.54,3.45,3.45v40.31 C85.82,119.32,84.28,120.87,82.37,120.87z" fill="#0288D1" stroke="#01579B" stroke-width="2" stroke-miterlimit="10"/>
      <path d="M80.17,76.88h-11.9c-1.47,0-2.66,1.19-2.66,2.66v25.01c0,1.47,1.19,2.66,2.66,2.66h11.9 c1.47,0,2.66-1.19,2.66-2.66V79.54C82.82,78.07,81.63,76.88,80.17,76.88z" fill="#37474F"/>
      <path d="M79.05,79.49h-9.67c-1.1,0-2,0.9-2,2v21.1c0,1.1,0.9,2,2,2h9.67c1.1,0,2-0.9,2-2v-21.1 C81.05,80.39,80.16,79.49,79.05,79.49z" fill="#BAE2FD"/>
      <path d="M42.55,120.87h18.43 c0.82,0,1.48-0.66,1.48-1.48V75.37c0-0.95-0.77-1.72-1.72-1.72h-18.2c-1.9,0-3.45,1.54-3.45,3.45v40.31 C39.1,119.32,40.64,120.87,42.55,120.87z" fill="#0288D1" stroke="#01579B" stroke-width="2" stroke-miterlimit="10"/>
      <path d="M15.91,68.63c2.23-2.23,5.12-2,6.93-2h16.45c0.93,0,1.4,1.13,0.74,1.78l-0.22,0.22 c-1.49,1.49-3.51,2.3-5.61,2.26l-13.83-0.32C19.79,70.56,13.68,70.86,15.91,68.63z" fill="#FAFAFA"/>
      <path d="M30.88,104.49V79.77c0-1.58-1.28-2.85-2.85-2.85H8.5l0.18,30.43h19.35 C29.6,107.35,30.88,106.07,30.88,104.49z" fill="#37474F"/>
      <path d="M29.22,102.42V81.61c0-1.19-0.95-2.15-2.13-2.15L8.52,79.37l0.15,25.2h18.42 C28.26,104.56,29.22,103.6,29.22,102.42z" fill="#BAE2FD"/>
      <path d="M44.64,76.88h11.9c1.47,0,2.66,1.19,2.66,2.66v25.01c0,1.47-1.19,2.66-2.66,2.66h-11.9 c-1.47,0-2.66-1.19-2.66-2.66V79.54C41.98,78.07,43.17,76.88,44.64,76.88z" fill="#37474F"/>
      <path d="M45.75,79.49h9.67c1.1,0,2,0.9,2,2v21.1c0,1.1-0.9,2-2,2h-9.67c-1.1,0-2-0.9-2-2v-21.1 C43.75,80.39,44.65,79.49,45.75,79.49z" fill="#BAE2FD"/>
    </g>
  </g>
</svg>

<svg viewBox="0 0 128 128" xmlns="http://www.w3.org/2000/svg">
  <defs/>
  <path d="M77.07,58.9 L47.63,58.9 C47.63,58.9 57.67,50.95 57.67,18.43 L67.25,18.43 C67.25,49.41 77.07,58.9 77.07,58.9 Z" fill="#607D8B"/>
  <path d="M85.42,64.34 L39.5,64.34 C37.88,64.34 36.57,63.03 36.57,61.41 L36.57,61.41 C36.57,59.79 37.88,58.48 39.5,58.48 L85.42,58.48 C87.04,58.48 88.35,59.79 88.35,61.41 L88.35,61.41 C88.35,63.03 87.04,64.34 85.42,64.34 Z" fill="#607D8B"/>
  <path d="M62.79,55.18 C58.39,55.18 54.37,54.68 51.25,53.85 C49.9,56.42 48.69,57.85 48.07,58.49 L76.7,58.49 C76.16,57.85 75.07,56.42 73.82,53.98 C70.78,54.73 66.96,55.18 62.79,55.18 Z" fill="#37474F"/>
  <path d="M124,34.65 L4,8.5 L4,4.41 L124,30.55 Z" fill="#9E9E9E"/>
  <path d="M92.91,15.53 L34.85,4.04 C33.73,3.81 32.65,4.62 32.59,5.77 C32.46,8.23 31.5,11.74 37.47,12.96 C44.18,14.33 51.43,16.31 51.43,16.31 C54.86,17.01 57.26,19.93 57.45,23.27 C57.51,24.43 58.34,25.41 59.48,25.64 L63.63,26.49 C64.77,26.72 65.91,26.15 66.43,25.1 C67.91,22.1 71.27,20.36 74.69,21.06 C74.69,21.06 82.14,22.07 88.84,23.44 C94.82,24.66 96.82,24.88 96.82,24.88 C96.82,24.88 98.44,16.89 92.91,15.53 Z" fill="#607D8B"/>
  <path d="M56.59,13.43 A5.32 5.32 0 1 1 45.95,13.43 A5.32 5.32 0 1 1 56.59,13.43 Z" fill="#37474F"/>
  <path d="M44.99,11.07 A5.32 5.32 0 1 1 34.35,11.07 A5.32 5.32 0 1 1 44.99,11.07 Z" fill="#37474F"/>
  <path d="M93.19,20.9 A5.32 5.32 0 1 1 82.55,20.9 A5.32 5.32 0 1 1 93.19,20.9 Z" fill="#37474F"/>
  <path d="M81.58,18.53 A5.32 5.32 0 1 1 70.94,18.53 A5.32 5.32 0 1 1 81.58,18.53 Z" fill="#37474F"/>
  <path d="M56.13,15.72 A5.32 5.32 0 1 1 45.49,15.72 A5.32 5.32 0 1 1 56.13,15.72 Z" fill="#82AEC0"/>
  <path d="M44.52,13.35 A5.32 5.32 0 1 1 33.88,13.35 A5.32 5.32 0 1 1 44.52,13.35 Z" fill="#82AEC0"/>
  <path d="M93.07,23.26 A5.32 5.32 0 1 1 82.43,23.26 A5.32 5.32 0 1 1 93.07,23.26 Z" fill="#82AEC0"/>
  <path d="M81.46,20.89 A5.32 5.32 0 1 1 70.82,20.89 A5.32 5.32 0 1 1 81.46,20.89 Z" fill="#82AEC0"/>
  <path d="M34.943,12.04 Q35.45,10.538 36.808,9.707 Q38.18,8.868 39.756,9.134 L39.424,11.106 Q38.585,10.964 37.852,11.413 Q37.113,11.865 36.837,12.68 Z" fill="#94D1E0"/>
  <path d="M46.648,13.985 Q48.312,11.489 51.327,11.631 L51.233,13.629 Q49.349,13.54 48.312,15.095 Z" fill="#94D1E0"/>
  <path d="M71.872,18.779 Q73.169,15.536 76.658,15.916 L76.442,17.904 Q74.462,17.688 73.728,19.521 Z" fill="#94D1E0"/>
  <path d="M83.729,21.136 Q85.36,17.755 88.928,18.952 L88.292,20.848 Q86.395,20.212 85.531,22.004 Z" fill="#94D1E0"/>
  <path d="M29.23,62.2 C35.99,62.2 87.47,62.2 94.67,62.2 C101.87,62.2 106.32,65.61 106.32,65.61 L18.48,65.61 C18.48,65.61 22.46,62.2 29.23,62.2 Z" fill="#82AEC0"/>
  <path d="M107.98,119.87 L62.38,119.87 L62.38,123.28 C78.18,123.28 94.42,123.28 97.93,123.28 C104.7,123.28 107.98,119.87 107.98,119.87 Z" fill="#01579B"/>
  <path d="M108.5,65.73 L16.26,65.73 L8.46,71.51 L8.6,107.35 C8.6,114.82 16.79,120 16.79,120 L107.99,120 C107.99,120 116.18,114.83 116.18,107.35 L116.32,71.51 L108.5,65.73 Z" fill="#0288D1"/>
  <path d="M16.78,119.87 L62.38,119.87 L62.38,123.28 C46.58,123.28 30.34,123.28 26.83,123.28 C20.07,123.28 16.78,119.87 16.78,119.87 Z" fill="#01579B"/>
  <path d="M116.31,82.76 C116.31,82.76 116.29,72.46 116.29,71.43 C116.29,69.29 109.43,65.64 107.62,65.64 L17.26,65.64 C15.45,65.64 8.59,69.29 8.59,71.43 C8.59,72.45 8.57,82.76 8.57,82.76 L30.7,82.76 C30.7,82.76 36.94,91.95 62.31,91.95 C87.68,91.95 94.28,82.76 94.28,82.76 L116.31,82.76 Z" fill="#E0E0E0"/>
  <path d="M93.93,104.49 L93.93,79.77 C93.93,78.19 95.21,76.92 96.78,76.92 L116.31,76.92 L116.13,107.35 L96.78,107.35 C95.2,107.35 93.93,106.07 93.93,104.49 Z" fill="#37474F"/>
  <path d="M95.59,102.42 L95.59,81.61 C95.59,80.42 96.54,79.46 97.72,79.46 L116.29,79.37 L116.14,104.57 L97.72,104.57 C96.54,104.56 95.59,103.6 95.59,102.42 Z" fill="#BAE2FD"/>
  <path d="M82.37,120.87 L63.95,120.87 C63.13,120.87 62.47,120.21 62.47,119.39 L62.47,75.37 C62.47,74.42 63.24,73.65 64.19,73.65 L82.39,73.65 C84.29,73.65 85.84,75.19 85.84,77.1 L85.84,117.41 C85.82,119.32 84.28,120.87 82.37,120.87 Z" fill="#0288D1"/>
  <path d="M82.37,121.87 L63.95,121.87 Q61.47,121.87 61.47,119.39 L61.47,75.37 Q61.47,74.243 62.267,73.447 Q63.063,72.65 64.19,72.65 L82.39,72.65 Q84.23,72.65 85.534,73.951 Q86.84,75.254 86.84,77.1 L86.84,117.41 Q86.821,119.264 85.521,120.563 Q84.214,121.87 82.37,121.87 Z M82.37,119.87 Q84.814,119.87 84.84,117.41 L84.84,77.1 Q84.84,74.65 82.39,74.65 L64.19,74.65 Q63.47,74.65 63.47,75.37 L63.47,119.39 Q63.47,119.87 63.95,119.87 Z" fill="#01579B"/>
  <path d="M80.17,76.88 L68.27,76.88 C66.8,76.88 65.61,78.07 65.61,79.54 L65.61,104.55 C65.61,106.02 66.8,107.21 68.27,107.21 L80.17,107.21 C81.64,107.21 82.83,106.02 82.83,104.55 L82.83,79.54 C82.82,78.07 81.63,76.88 80.17,76.88 Z" fill="#37474F"/>
  <path d="M79.05,79.49 L69.38,79.49 C68.28,79.49 67.38,80.39 67.38,81.49 L67.38,102.59 C67.38,103.69 68.28,104.59 69.38,104.59 L79.05,104.59 C80.15,104.59 81.05,103.69 81.05,102.59 L81.05,81.49 C81.05,80.39 80.16,79.49 79.05,79.49 Z" fill="#BAE2FD"/>
  <path d="M42.55,120.87 L60.98,120.87 C61.8,120.87 62.46,120.21 62.46,119.39 L62.46,75.37 C62.46,74.42 61.69,73.65 60.74,73.65 L42.54,73.65 C40.64,73.65 39.09,75.19 39.09,77.1 L39.09,117.41 C39.1,119.32 40.64,120.87 42.55,120.87 Z" fill="#0288D1"/>
  <path d="M42.55,121.87 Q40.704,121.87 39.4,120.563 Q38.1,119.26 38.09,117.41 L38.09,77.1 Q38.09,75.254 39.396,73.951 Q40.7,72.65 42.54,72.65 L60.74,72.65 Q61.867,72.65 62.663,73.447 Q63.46,74.243 63.46,75.37 L63.46,119.39 Q63.46,121.87 60.98,121.87 Z M42.55,119.87 L60.98,119.87 Q61.46,119.87 61.46,119.39 L61.46,75.37 Q61.46,74.65 60.74,74.65 L42.54,74.65 Q40.09,74.65 40.09,77.1 L40.09,117.41 Q40.103,119.87 42.55,119.87 Z" fill="#01579B"/>
  <path d="M15.91,68.63 C18.14,66.4 21.03,66.63 22.84,66.63 L39.29,66.63 C40.22,66.63 40.69,67.76 40.03,68.41 L39.81,68.63 C38.32,70.12 36.3,70.93 34.2,70.89 L20.37,70.57 C19.79,70.56 13.68,70.86 15.91,68.63 Z" fill="#FAFAFA"/>
  <path d="M30.88,104.49 L30.88,79.77 C30.88,78.19 29.6,76.92 28.03,76.92 L8.5,76.92 L8.68,107.35 L28.03,107.35 C29.6,107.35 30.88,106.07 30.88,104.49 Z" fill="#37474F"/>
  <path d="M29.22,102.42 L29.22,81.61 C29.22,80.42 28.27,79.46 27.09,79.46 L8.52,79.37 L8.67,104.57 L27.09,104.57 C28.26,104.56 29.22,103.6 29.22,102.42 Z" fill="#BAE2FD"/>
  <path d="M44.64,76.88 L56.54,76.88 C58.01,76.88 59.2,78.07 59.2,79.54 L59.2,104.55 C59.2,106.02 58.01,107.21 56.54,107.21 L44.64,107.21 C43.17,107.21 41.98,106.02 41.98,104.55 L41.98,79.54 C41.98,78.07 43.17,76.88 44.64,76.88 Z" fill="#37474F"/>
  <path d="M45.75,79.49 L55.42,79.49 C56.52,79.49 57.42,80.39 57.42,81.49 L57.42,102.59 C57.42,103.69 56.52,104.59 55.42,104.59 L45.75,104.59 C44.65,104.59 43.75,103.69 43.75,102.59 L43.75,81.49 C43.75,80.39 44.65,79.49 45.75,79.49 Z" fill="#BAE2FD"/>
</svg>
